X:1
T:O Praise the Lord!
T:O Praise the Lord!
T:William Backus Olmstead
T:William Backus Olmstead, 1909
T:Public Domain Courtesy of the Cyber Hymnal™
T:Public Domain Courtesy of the Cyber Hymnal™
C:William Backus Olmstead
Z:Public Domain
Z:Courtesy of the Cyber Hymnal™
%%score ( 1 2 ) ( 3 4 )
L:1/8
Q:1/4=100
M:4/4
K:C
V:1 treble 
V:2 treble 
V:3 bass 
V:4 bass 
V:1
 [EG]2 [EG]2 [EG]>[FA] [EG]>[DF] | [CE]/ [EG]7/2- [EG]2 z2 | [Fc]2 [Gc]2 [Ac]>[Ac] [GB]>[FA] | %3
w: 1.~Praise Him, all ye hosts of|Heav- en, *|God the King of glo- ry|
w: 2.~Christ hast pur- chased our re-|demp- tion *|By His death up- on the|
w: 3.~He has now to Heav’n as-|cend- ed, *|There our ad- vo- cate to|
 [EG]6 z2 | C2 [B,D]2 [CE]3 D | (CD) (EF) G2 [Ec]2 | G2 [Gc]2 [FB]>[FA] [FB]>[Fd] | %7
w: praise;|Let us give Him|ad- * o- * ra- tion,|Tune- ful hearts and voic- es|
w: tree;|We should praise Him,|give * Him * glo- ry,|For sal- va- tion full and|
w: be;|Soon He’ll come in|clouds * of * glo- ry,|And His beau- ty we shall|
[M:12/8] [Ec]8 ||"^Refrain" [CE] [CE]2 [DF] | [EG]8 [Ec] [GB]2 [FA] | [EG]6- [EG]3 G2 [EG] | %11
w: raise.|O praise the|Lord and bless His|name! * Let it|
w: free.||||
w: see.||||
 [DB] [GB]2- [GB]3 [^FA]3 [FA]3 | G6- G2 [CE] ([CE][DF])[EG] | [FA] [FA]2- [FA]6 d2 [Ac] | %14
w: e- cho * loud and|long; * Sing hal- * le-|lu- jah! * shout for|
w: |||
w: |||
 [GB]6- !fermata![GB]3 [Ec]2 [^DA] | [EG]3- [EG]2 [Ec] [Fd]3 [FB]3 | c6- [Ec]3 z3 |] %17
w: joy! * Praise His|name * in grate- ful|song. *|
w: |||
w: |||
V:2
 x8 | x8 | x8 | x8 | C2 x3 D x2 | CDEF G2 x2 | G2 x6 |[M:12/8] x8 || x4 | x12 | x9 (GF) x | x12 | %12
 G6- G2 x4 | x9 (^FG) x | x12 | x12 | E2 E AGF x6 |] %17
V:3
 [C,C]2 [C,C]2 [C,C]>[C,C] [C,C]>[C,A,] | [C,G,]/ [C,C]7/2- [C,C]2 z2 | %2
w: ~ ~ ~ ~ ~ ~|~ ~ *|
 [F,A,]2 [F,C]2 [F,F]>[F,F] [F,C]>[F,C] | [C,C]6 z2 | [C,E,]2 [G,,G,]2 [C,G,]3 [B,,F,] | %5
w: ~ ~ ~ ~ ~ ~|~|~ ~ ~ ~|
 ([C,E,] D,)(E,F,) G,2 [C,G,]2 | [E,C]2 [C,E]2 [G,D]>[G,C] [G,,D]>[G,,B,] |[M:12/8] [C,C]8 || z4 | %9
w: ~ * ~ * ~ ~|~ ~ ~ ~ ~ ~|~||
 z2 [C,G,] (CB,)[C,A,] [C,G,]2 z4 | z2 [C,G,] (CB,)[C,A,] [C,G,]3 C2 [C,C] | %11
w: O praise * the Lord,|and bless * His Name! ~ ~|
 [D,G,] [D,B,]2- [D,B,]3 [D,D]3 [D,C]3 | [G,,B,]6- [G,,B,]2 z4 | %13
w: ~ ~ * ~ ~|~ *|
 z3 (DC)[=F,B,] [F,A,] [F,A,]2 A,2 [^F,A,] | %14
w: Hal- * le- lu- jah! ~ ~|
 [G,D]2 [G,^C] [G,D]2 [G,E] !fermata![G,F]3 [A,E]2 [^F,=C] | [G,D]3- [G,D]2 [A,C] [F,A,]3 G,3 | %16
w: ~ ~ O shout for joy! ~|~ * ~ ~ ~|
 G,2 G, (CB,)A, [C,G,]3 z3 |] %17
w: ~ ~ for- * ev- more|
V:4
 x8 | x8 | x8 | x8 | x8 | x D,E,F, G,2 x2 | x8 |[M:12/8] x8 || x4 | x3 C,2 x7 | %10
 x3 C,2 x3 (E, D,) x2 | x12 | x12 | x3 ^F,2 x3 D, E, x2 | x12 | x9 G,3 | C,6- x6 |] %17

